X:17
%%id arirang
%%ko 아리랑
%%en Arirang
%%ja アリラン
%%src 한국 전래 민요 (경기아리랑), Wikipedia 악보 (F장조 9/8 세마치)
%%bpm 90
M:9/8
L:1/8
K:F
C5 D C2 D | F5 G F2 G | A3 G A G F2 D | C5 D C D2 | F5 G F2 G | A2 G F2 D C2 D | F5 G F3 | F9 | c6 c3 | c3 A3 G3 | A3 G2 A F2 D | C5 D C D2 | F5 G F2 G | A2 G F2 D C2 D | F5 G F3 | F9 |]

